!!!COM: Scarlatti, Domenico
!!!CDT: 1685-1757
!!!OTL: Sonata in C minor, L.10, K.84
!!!SCT: K. 84
!!!SCT: L. 10
!!!OMD: Allegro ([quarter]=152)
**kern	**kern	**dynam
*staff2	*staff1	*staff1/2
*Icemba	*Icemba	*
*I"L.10 (K.84)	*I"L.10 (K.84)	*
*>[A,A1,A,A2,B,B1,B,B2]	*>[A,A1,A,A2,B,B1,B,B2]	*>[A,A1,A,A2,B,B1,B,B2]
*>norep[A,A2,B,B2]	*>norep[A,A2,B,B2]	*>norep[A,A2,B,B2]
*>A	*>A	*>A
*clefF4	*clefG2	*
*k[b-e-a-]	*k[b-e-a-]	*
*M3/4	*M3/4	*
*MM152	*MM152	*
=1-	=1-	=1-
4CC 4C	8r	f
.	8c'L	.
4r	8e-'	.
.	8g'	.
4r	8cc'	.
.	8ee-'J	.
=2	=2	=2
2.r	(8gg^L	.
.	8ccc)	.
.	8gg'	.
.	8ee-'	.
.	8cc'	.
.	8g'J	.
=3	=3	=3
8r	4c'	.
8C'L	.	.
8E-'	4r	.
8G'	.	.
8c'	4r	.
8e-'J	.	.
=4	=4	=4
(8g^L	2.r	.
8cc)	.	.
8g'	.	.
8e-'	.	.
8c'	.	.
8G'J	.	.
!!LO:LB:g=z
=5	=5	=5
4C'	16r	<
.	(16ggLL	.
.	16aan	.
.	16bbnJJ	.
*clefG2	*	*
4g'	8ee-' 8ccc'L)	.
.	8dd' 8bb'	[ p
4g'	8ee-' 8ccc'	.
.	8dd' 8bb'J	.
=6	=6	=6
16r	4ee-' 4ccc'	<
(>16gLL	.	.
16an	.	.
16bnJJ	.	.
8e-' 8cc'L)	4gg'	[ p
8d' 8b'	.	.
8e-' 8cc'	4gg'	.
8d' 8b'J	.	.
=7	=7	=7
4e-' 4cc'	16r	<
.	(16ggLL	.
.	16aan	.
.	16bbnJJ	.
4g'	8ee-' 8ccc'L)	.
.	8dd' 8bb'	[ p
4g'	8ee-' 8ccc'	.
.	8dd' 8bb'J	.
=8	=8	=8
16r	4ee-' 4ccc'	<
(>16gLL	.	.
16an	.	.
16bnJJ	.	.
8e-' 8cc'L)	4gg'	.
8d' 8b'	.	[ p
8e-' 8cc'	4gg'	.
8d' 8b'J	.	.
!!LO:LB:g=z
=9	=9	=9
4e-' 4cc'	8r	.
.	(8ggL^	f
8r	8ccc'J)	.
8ee->'<L	16rccc	.
.	16gg'>LL	.
8ff>'<	16rccc	.
.	16aa-X'>	.
8dd>'<J	16rccc	.
.	16ff'>JJ	.
=10	=10	=10
8ee->'<L	16rccc	.
.	16gg'>LL	.
8bn>'<	16raa	.
.	16dd'>	.
8cc>'<	16raa	.
.	16ee-'>	.
8g>'<	16rff	.
.	16bn'>	.
8a-X>'<	16rff	.
.	16cc'>	.
8e->'<J	16rdd	.
.	16g'>JJ	.
=11	=11	=11
8f>'<L\	16rdd	.
.	16a-'>LL	.
8d>'<\	16rdd	.
.	16f'>	.
8e->'<\	16rdd	.
.	16g'>	.
8Bn>'<\	16rb	.
.	16d'>	.
8c>'<\	16rb	.
.	16e-'>	.
*clefF4	*	*
8F'<J/	16rb	.
.	16f'>JJ	.
!!LO:LB:g=z
=12	=12	=12
8GG'	16r	<
.	(>16dLL	.
8r	16en	.
.	16f#JJ	.
4r	8Bn' 8g'L)	.
.	8An' 8f#'	[ p
4r	8B' 8g'	.
.	8A' 8f#'J	.
=13	=13	=13
16r	8Bn' 8g'	<
(16DLL	.	.
16En	8r	.
16F#JJ	.	.
8BBn' 8G'L)	4d'	.
8AAn' 8F#'	.	[ p
8BB' 8G'	4d'	.
8AA' 8F#'J	.	.
=14	=14	=14
8BBn' 8G'	8r	.
8r	8gg'Lz	.
4c'	8a-X (8ffn	p
.	8g 8een)	.
4c'	8a-' 8ff'	.
.	8g' 8ee'J	.
=15	=15	=15
16r	8a-' 8ff'	<
(16cLL	.	.
16d	8r	.
16enJJ	.	.
8A-' 8f'L)	4cc'	.
8G' 8e'	.	[ p
8A-' 8f'	4cc'	.
8G' 8e'J	.	.
!!LO:LB:g=z
=16	=16	=16
8A-' 8f'	8r	.
8r	8a-'z 8ff'Lz	.
4B-'	8g (8ee-	p
.	8f 8dd)	.
4B-'	8g' 8ee-'	.
.	8f' 8dd'J	.
=17	=17	=17
16r	8g' 8ee-'	<
(16B-LL	.	.
16c	8r	.
16dJJ	.	.
8G' 8e-'L)	4b-'	[ p
8F' 8d'	.	.
8G' 8e-'	4b-'	.
8F' 8d'J	.	.
=18	=18	=18
8G' 8e-'	8r	.
8r	8g' 8ee-'L	.
(4FF 4F	(8g 8ee-	mf
.	8f) 8dd	.
4FF# 4F#	(8fn 8dd	.
.	8e-) 8ccJ	.
=19	=19	=19
4GG) 4G	(8e- 8ccL	.
.	8d 8bn)	.
4r	(8d 8b	.
.	8e- 8cc)	.
4r	(8e- 8cc	.
.	8f 8ddJ)	.
!!LO:LB:g=z
=20	=20	=20
4GG\ 4G\	8f (8ddL	.
.	8g 8ee-)	.
4r	8g (8ee-	.
.	8a- 8ff)	.
4r	8a- (8ff	.
.	8bn 8ddJ)	.
=21	=21	=21
4GG\ 4G\	8bn (8ddL	.
.	8cc 8ee-)	.
4r	8cc (8ee-	.
.	8dd 8ff)	.
4r	8dd (8ff	.
.	8ee- 8ggJ)	.
=22	=22	=22
4GG\ 4G\	8ee- (8ggL	.
.	8dd 8ff)	.
4r	8dd (8ff	.
.	8cc 8ee-J)	.
4r	8cc (8ee-L	.
.	16bn 16ddL	.
.	16an 16ccJJ	.
=23	=23	=23
*	*^	*
4GG\ 4G\	4ryy	8bn' 8dd'L)	.
.	.	8gg'	f
4r	(4ccc	8aa-X	.
.	.	8ff#	.
4r	4bbn	8gg	.
.	.	8ddJ	.
=24	=24	=24	=24
4GG\ 4G\	4ccc	8ee-L	>
.	.	8cc	.
4r	4aa-	8ffn	.
.	.	8dd	.
4r	4gg	8ee-	.
.	.	8ccJ	.
!!LO:LB:g=z
=25	=25	=25	=25
4GG 4G	4ff	8dd-L	.
.	.	8bn	.
4r	4ee-	8cc	.
.	.	8g	.
4r	4cc	8a-	.
.	.	8f#J	.
=26	=26	=26	=26
4GG 4G	4bn	8gL	.
.	.	8dn	.
4r	4cc	8e-	.
.	.	8c	.
4r	4a-	8f	.
.	.	8dJ	.
=27	=27	=27	=27
4GG 4G	4g	8e-L	.
.	.	8c	.
4r	4f	8d-	.
.	.	8BnJ	.
*	*v	*v	*
4r	8e- 8cL)	.
.	(16B 16dnL	.
.	16An 16cJJ	.
=28	=28	=28
16r	8G) 8Bn	p
(16GGLL<	.	.
16AAn	8r	.
16BBn	.	<
16C	4r	.
16D	.	.
16En	.	.
16F#JJ	.	.
16G)	16r	.
16r	(16AnLL	.
8r	16B	.
.	16cJJ	.
!!LO:LB:g=z
=29	=29	=29
2.ryy	8d')	.
.	(16enLL<	.
.	16f#JJ	.
.	16g\	.
.	16anLL>	.
.	16bn	.
.	16ccJJ	.
.	8dd'/)	.
.	N(<16eenLL	.
.	16ff#JJ	.
=30	=30	=30
8gg>'<LN)	16rccc	f
.	16gg'>LL	.
8dd>'<	16raa	.
.	16dd'>	.
8bn>'<	16rff	.
.	16b'>	.
8g>'<	16rdd	.
.	16g'>	.
8d>'<	16rb	.
.	16d'>	.
8Bn>'<J	16rg	.
.	16B'>JJ	.
=31	=31	=31
*>A1	*>A1	*>A1
(4GG^	2.r	.
8G'L)	.	.
8D'	.	.
8BBn'	.	.
8D'J	.	.
=32:|!|:	=32:|!|:	=32:|!|:
*>A2	*>A2	*>A2
4GG^	8r	.
.	(8GL	f
4r	8Bn)	.
.	8d'	.
4r	8g'	.
.	8bn'J	.
!!LO:LB:g=z
=33	=33	=33
*>B	*>B	*>B
8r	4dd^	.
(8GGL>	.	.
8BBn)	4r	.
8D'	.	.
8G'	4r	.
8Bn'J	.	.
=34	=34	=34
4d	8r	.
.	8f#' 8dd'L	>
4r	(8f# 8dd	.
.	8e-X) 8cc	.
4r	(8e- 8cc	] mf
.	8d) 8b-XJ	.
=35	=35	=35
2.r	(8d 8b-L	.
.	8c) 8an	.
.	(8c 8a	.
.	8B-) 8g	.
.	(8B- 8g	.
.	8An) 8f#J	.
=36	=36	=36
8r	8An' 8f#'	.
8B-' 8g'L	8r	.
8B- (8g	4r	.
8An 8fn)	.	.
8A (8f	4r	.
8G 8e-J)	.	.
=37	=37	=37
8G (8e-L	2.r	.
8F# 8d)	.	.
8F# (8d	.	.
8En 8c#)	.	.
8E (8c#	.	.
8D 8dJ)	.	.
!!LO:LB:g=z
=38	=38	=38
8D' 8d'	8r	.
8r	(8dd^L	f
8r	8ee-'>J)	.
8an>'<L	16raa	.
.	16cc'>LL	.
8b->'<	16raa	.
.	16dd'>	.
8f#>'<J	16rff	.
.	16a-'>JJ	.
=39	=39	=39
8g>'<\L	16rff	.
.	16b-'LL	.
8d>'<\	16rdd	.
.	16f#'	.
8e->'<\	16rdd	.
.	16g'	.
8B->'<\	16rb	.
.	16d'	.
8c>'<\	16rb	.
.	16e-'	.
8An'/J	16rg	.
.	16c'JJ	.
=40	=40	=40
8B-'	8r	.
8r	(8gg^L	.
8r	8aa-X'J)	.
8dd>'<L	16rccc	.
.	16ffn'LL	.
8ee->'<	16rccc	.
.	16gg'	.
8bn>'<J	16rccc	.
.	16dd'JJ	.
!!LO:LB:g=z
=41	=41	=41
8cc>'<\L	16rccc	.
.	16ee-'>LL	.
8g>'<\	16rff	.
.	16bn'>	.
8a->'<\	16rff	.
.	16cc'>	.
8e->'<\	16rdd	.
.	16g'>	.
8f>'<\	16rdd	.
.	16a-'>	.
8d'J/	16rb	.
.	16f'>JJ	.
=42	=42	=42
4e-'	8r	.
.	8g' 8gg'	p
*	*^	*
(4d	(8ggL	4an	.
.	8ffJ)	.	.
4G	(8ffL	(4bn	.
.	16ee-L	.	.
.	16ddJJ	.	.
=43	=43	=43	=43
4C)	8ee-'L)	4cc')	.
.	8ccc'J	.	.
4C	(8cccL	4dd	.
.	8bb-XJ)	.	.
(4C	(8bb-L	(4een	.
.	16aa-L	.	.
.	16ggJJ	.	.
*	*v	*v	*
=44	=44	=44
*^	*	*
8r	4F')	4ff') 4aa-')	mf
8fL	.	.	.
(8f	4F	4ff (4aa-	.
8e-J)	.	.	.
(4e-	(8GL	4ee- 4gg	.
.	8A-J	.	.
*v	*v	*	*
!!LO:LB:g=z
=45	=45	=45
4B-' 4d'))	8dd' 8ff'L)	.
.	8b-' 8bb-'J	p
*	*^	*
4BB-	(8bb-L	4cc	.
.	8aa-J)	.	.
(4BB-	(8aa-L	(4dd	.
.	16ggL	.	.
.	16ffJJ	.	.
*	*v	*v	*
=46	=46	=46
*^	*	*
8re	4E-')	4ee-') 4gg')	.
!	!	!	!LO:DY:rj
8e-'L	.	.	mf
(8e-	4E-	4ee- (4gg	.
8dJ)	.	.	.
(4d	(8FL	4dd 4ff	.
.	8GJ	.	.
*v	*v	*	*
=47	=47	=47
4A-' 4c'))	8cc' 8ee-'L)	.
.	8a-' 8aa-'J	p
*	*^	*
4AA-	(8aa-L	4b-	.
.	8ggJ)	.	.
(4AA-	(8ggL	(4cc	.
.	16ffL	.	.
.	16ee-JJ	.	.
*	*v	*v	*
=48	=48	=48
*^	*	*
8r	4D')	4dd' 4ff'))	mf
8d'L	.	.	.
(8d	4D	4dd (4ff	.
8cJ)	.	.	.
(4c	(8E-L	4cc 4ee-	.
.	8FJ	.	.
*v	*v	*	*
!!LO:LB:g=z
=49	=49	=49
4G' 4Bn'))	8bn' 8dd'L)	.
.	8g' 8gg'J	p
*	*^	*
4GG	(8ggL	4an	.
.	8ffJ)	.	.
(4GG	(8ffL	(4b	.
.	16ee-L	.	.
.	16ddJJ	.	.
=50	=50	=50	=50
4C')	4ee-')	8cc'L)	.
.	.	(8g	mf
(4F	(4dd	8a-X	.
.	.	8f	.
4A-	4cc	8e-	.
.	.	8cJ	.
=51	=51	=51	=51
8G')	8bn)	8d')	.
*	*v	*v	*
8r	8aa-' 8ccc'L	.
4r	8aa- (8ccc	.
.	8gg 8bbn)	.
4r	8gg (8bb	.
.	8aa- 8cccJ)	.
=52	=52	=52
*^	*	*
4rA	4GG	8aa- (8cccL	.
.	.	8gg 8bb-X)	.
(4G	4rGG	8gg (8bb-	.
.	.	8ff# 8aan)	.
4F#	4rGG	8ff# (8aa	.
.	.	8gg 8bb-J)	.
=53	=53	=53	=53
4G	4GG	(8gg 8bb-L	.
.	.	8ffn 8aa-X)	.
4Fn	4rGG	(8ff 8aa-	.
.	.	8een 8gg)	.
4En	4rGG	(8ee 8gg	.
.	.	8ff 8aa-J)	.
!!LO:LB:g=z
=54	=54	=54	=54
4F	4GG	(8ff 8aa-L	.
.	.	8ee-X 8gg)	.
4E-X	4rEE	(8ee- 8gg	.
.	.	8dd 8ff#)	.
4D	4rEE	(8dd 8ff#	.
.	.	8ee- 8ggJ)	.
=55	=55	=55	=55
4E-	4GG	(8ee- 8ggL	.
.	.	8dd- 8ff)	.
4D-	4rEE	(8dd- 8ff	.
.	.	8cc 8een)	.
4C	4rEE	(8cc 8ee	.
.	.	8dd- 8ffJ)	.
=56	=56	=56	=56
4D-	4GG	(8dd- 8ffL	.
.	.	8cc 8ee-X)	.
4C	4rEE	(8cc 8ee-	.
.	.	8bn 8ddn)	.
4BBn	4rEE	(8b 8dd	.
.	.	8cc 8ee-J)	.
*v	*v	*	*
=57	=57	=57
*	*^	*
4GG 4G)	(4ee-	8ccL	.
.	.	8g	.
4r	4cc	8a-	.
.	.	8f#	.
4r	4bn	8g	.
.	.	8dJ	.
=58	=58	=58	=58
4GG 4G	4cc	8e-L	.
.	.	8c	.
4r	4a-	8fn	.
.	.	8d	.
4r	4g	8e-	.
.	.	8cJ	.
!!LO:LB:g=z
=59	=59	=59	=59
4GG\ 4G\	4f	8d-L	.
.	.	8BnJ	.
4r	4e-	16cLL	<
.	.	16G	.
.	.	16An	.
.	.	16BJJ	.
*	*v	*v	*
4r	16cLL	.
.	16dn	.
.	16e-	.
.	16fJJ	.
=60	=60	=60
8r	4g)	.
8G' 8e-'L	.	[ >
8G (8e-	4g	.
8F 8d)	.	.
8F (8d	4g	.
8E- 8cJ)	.	]
=61	=61	=61
8E- (8cL	4g	p
8D 8B-)	.	.
8D (8B-	4g	.
8C 8A-)	.	.
8C (8A-	4g	.
8BBn 8GJ)	.	.
=62	=62	=62
4BBn' 4G'	16r	.
.	(>16dLL	<
.	16e-	.
.	16f	.
8r	16g	.
.	32anL	.
.	32bnJ	.
8BB' 8G'	16cc'>)	.
.	16dd'>JJ	[
4C^ 4G^	(8ee-^L	f >
.	8ccJ)	]]
!!LO:LB:g=z
=63	=63	=63
4BBn' 4G'	16r	.
.	(>16dLL	<
.	16e-	.
.	16f	.
8r	16g	.
.	32anL	.
.	32bnJ	.
*^	*	*
8G'	8BB'L	16cc'>)	.
.	.	16dd'>JJ	[ >
4G^	(8C	(8ee-^L	.
.	8E-J)	8ccJ)	]
*v	*v	*	*
=64	=64	=64
*	*^	*
(4F	8raa	(4a-X	p
.	(8ffL	.	.
4G	8ee-	4g	.
.	8cc	.	.
4GG)	8dd	4f)	.
.	8bnJ)	.	.
*	*v	*v	*
=65	=65	=65
4BBn' 4G'	16r	.
.	(>16dLL	<
.	16e-	.
.	16f	.
8r	16g	.
.	32anL	.
.	32bnJ	.
8BB' 8G'	16cc'>)	.
.	16dd'>JJ	[
4C^ 4G^	(8ee-^L	f >
.	8ccJ)	]]
!!LO:LB:g=z
=66	=66	=66
4BBn' 4G'	16r	.
.	(>16dLL	.
.	16e-	<
.	16f	.
8r	16g	.
.	32anL	.
.	32bnJ	.
*^	*	*
8G'	8BB'L	16cc'>)	.
.	.	16dd'>JJ	.
4G^	(8C	(8ee-^L	[ >
.	8E-J)	8ccJ)	]]
*v	*v	*	*
=67	=67	=67
(<8FL	(8a-XL	mf
8FFJ	8ddJ	.
4G	8e-L	.
.	8ccJ	.
4GG)	8dL	.
.	8bnJ	.
=68	=68	=68
16r	4e- 4cc)	.
(16CLL	.	p
16D	.	.
16E-	.	.
16F	4r	.
16G	.	<
16An	.	.
16BnJJ	.	.
16c)	16r	.
16r	(16dLL	.
8r	16e-	.
.	16fJJ	.
!!LO:LB:g=z
=69	=69	=69
2.r	8g')	.
.	(16anLL	.
.	16bnJJ	.
.	16cc	.
.	16ddLL	.
.	16ee-	.
.	16ffJJ	.
.	8gg')	.
.	(16aanLL	.
.	16bbnJJ	.
=70	=70	=70
8ccc>'<L)	16rbbb	f
.	16ccc'>LL	.
8gg>'<	16reee	.
.	16gg'>	.
8ee->'<	16rccc	.
.	16ee-'>	.
8cc>'<	16raa	.
.	16cc'>	.
8g>'<	16rff	.
.	16g'>	.
8e->'<J	16rdd	.
.	16e-'>JJ	.
=71	=71	=71
*>B1	*>B1	*>B1
4CC^	2.r	.
8c'L	.	.
8G'	.	.
8E-'	.	.
8C'J	.	.
=72:|!	=72:|!	=72:|!
*>B2	*>B2	*>B2
4CC	2.r	.
4r	.	.
4r	.	.
==	==	==
*-	*-	*-
!!!RDF**kern: > = above
!!!RDF**kern: < = below
!!!RDF**kern: N = linked
!!!URL-vhv: https://verovio.humdrum.org/?file=scarlatti/sonatas/L010K084.krn
!!!URL-pdf: https://github.com/craigsapp/scarlatti-keyboard-sonatas/blob/master/reference-edition/L010K084.pdf
!!!PTL: Domenico Scarlatti: Opere complete per clavicembalo
!!!PED: Longo, Alessandro
!!!PPR: Ricordi
!!!PPP: Milan
!!!PDT: 1906-1913
!!!YEC: 2021 Craig Stuart Sapp
!!!YEM: Licence: (CC BY-NC-SA 4.0) https://creativecommons.org/licenses/by-nc-sa/4.0
!!!ENC: Kelly Leistikow
!!!END: 2005/07/26
!!!EED: Craig Stuart Sapp
!!!EEV: 2020/12/21
